X: 2007
T: Tennessee Breakdown
B: steve tunes
M:2/4
L:1/8
Q: 1/4=130
K:G
V:1 
%Z:Jim Kendrick
|:"G"[Bg]age d3 [Bg]- | [Bg]aba bga[Bg]- | [Bg]age d2 cB- | BcAB G2 AG :|
|:[G3B][G3B][G2B]- | [GB]AGE DEGA | [G3B][G2B] A GE | DDDD EG3 :|
|:GGAB GGAB | GBAG EDGA | [G3B][G2B] A GE | DDDD EGAB :|
|:[B8d] | [_B6d] [=B2D]- | [B3D] [G2B] A GE | DDDD EG3:|
% abcbook-tune_id 6298c297554c2eb899194e84


% abcbook-boost 0
% abcbook-tablature 
% abcbook-transpose 
% abcbook-lastupdated 1655814437488
% abcbook-soundfonts 
% abcbook-repeats 3


